svg/emoji_u1f683.svg

<svg viewBox="0 0 128 128" xmlns="http://www.w3.org/2000/svg" xmlns:xlink="http://www.w3.org/1999/xlink">
  <rect fill="#8D6E63" height="21.99" width="119.85" x="4.04" y="101"/>
  <rect fill="#424242" height="7" width="119.92" x="4.04" y="101"/>
  <g opacity=".2">
    <path d="m122 103v18h-116v-18h116m2-2h-120v22h120v-22z" fill="#eee"/>
  </g>
  <g fill="#212121">
    <circle cx="18" cy="99" r="6"/>
    <circle cx="34" cy="99" r="6"/>
    <circle cx="94" cy="99" r="6"/>
    <circle cx="110" cy="99" r="6"/>
  </g>
  <linearGradient id="e" gradientUnits="userSpaceOnUse" x1="64.083" x2="64.083" y1="28" y2="99">
    <stop offset=".0038323" stop-color="#FFEB3B"/>
    <stop offset=".8197" stop-color="#FCC830"/>
    <stop offset="1" stop-color="#FBC02D"/>
  </linearGradient>
  <path d="m115.94 99h-103.71c-3.3 0-6-2.7-6-6v-59c0-3.31 2.69-6 6-6h103.71c3.31 0 6 2.69 6 6v59c0 3.3-2.7 6-6 6z" fill="url(#e)"/>
  <rect fill="#689F38" height="11.32" width="115.83" x="6.11" y="79.66"/>
  <defs>
    <path id="d" d="m115.94 99h-103.71c-3.3 0-6-2.7-6-6v-59c0-3.31 2.69-6 6-6h103.71c3.31 0 6 2.69 6 6v59c0 3.3-2.7 6-6 6z"/>
  </defs>
  <clipPath id="b">
    <use xlink:href="#d"/>
  </clipPath>
  <rect clip-path="url(#b)" fill="#689F38" height="17.25" width="120.51" x="3.83" y="18.75"/>
  <g clip-path="url(#b)">
    <path d="M21,74H5.6c-2.21,0-4-1.79-4-4V49.75c0-2.21,1.79-4,4-4H21c2.21,0,4,1.79,4,4V70 C25,72.21,23.21,74,21,74z" fill="#4FC3F7"/>
  </g>
  <g clip-path="url(#b)" opacity=".2">
    <path d="m21 47.75c1.1 0 2 0.9 2 2v20.25c0 1.1-0.9 2-2 2h-15.4c-1.1 0-2-0.9-2-2v-20.25c0-1.1 0.9-2 2-2h15.4m0-2h-15.4c-2.21 0-4 1.79-4 4v20.25c0 2.21 1.79 4 4 4h15.4c2.21 0 4-1.79 4-4v-20.25c0-2.21-1.79-4-4-4z" fill="#424242"/>
  </g>
  <path d="m44.25 69.08h-9.15c-2.21 0-4-1.79-4-4v-15.33c0-2.21 1.79-4 4-4h9.14c2.21 0 4 1.79 4 4v15.33c0.01 2.21-1.78 4-3.99 4z" fill="#4FC3F7"/>
  <g opacity=".2">
    <path d="m44.25 47.75c1.1 0 2 0.9 2 2v15.33c0 1.1-0.9 2-2 2h-9.15c-1.1 0-2-0.9-2-2v-15.33c0-1.1 0.9-2 2-2h9.15m0-2h-9.15c-2.21 0-4 1.79-4 4v15.33c0 2.21 1.79 4 4 4h9.14c2.21 0 4-1.79 4-4v-15.33c0.01-2.21-1.78-4-3.99-4z" fill="#424242"/>
  </g>
  <path d="m66.37 68.89h-9.14c-2.21 0-4-1.79-4-4v-15.34c0-2.21 1.79-4 4-4h9.14c2.21 0 4 1.79 4 4v15.33c0 2.22-1.79 4.01-4 4.01z" fill="#4FC3F7"/>
  <g opacity=".2">
    <path d="m66.37 47.55c1.1 0 2 0.9 2 2v15.33c0 1.1-0.9 2-2 2h-9.14c-1.1 0-2-0.9-2-2v-15.33c0-1.1 0.9-2 2-2h9.14m0-2h-9.14c-2.21 0-4 1.79-4 4v15.33c0 2.21 1.79 4 4 4h9.14c2.21 0 4-1.79 4-4v-15.33c0-2.21-1.79-4-4-4z" fill="#424242"/>
  </g>
  <path d="m88.5 69.08h-9.14c-2.21 0-4-1.79-4-4v-15.33c0-2.21 1.79-4 4-4h9.14c2.21 0 4 1.79 4 4v15.33c0 2.21-1.79 4-4 4z" fill="#4FC3F7"/>
  <g opacity=".2">
    <path d="m88.5 47.75c1.1 0 2 0.9 2 2v15.33c0 1.1-0.9 2-2 2h-9.14c-1.1 0-2-0.9-2-2v-15.33c0-1.1 0.9-2 2-2h9.14m0-2h-9.14c-2.21 0-4 1.79-4 4v15.33c0 2.21 1.79 4 4 4h9.14c2.21 0 4-1.79 4-4v-15.33c0-2.21-1.79-4-4-4z" fill="#424242"/>
  </g>
  <path d="m110.62 69h-9.14c-2.21 0-4-1.79-4-4v-15.33c0-2.21 1.79-4 4-4h9.14c2.21 0 4 1.79 4 4v15.33c0 2.21-1.79 4-4 4z" fill="#4FC3F7"/>
  <g opacity=".2">
    <path d="m110.62 47.67c1.1 0 2 0.9 2 2v15.33c0 1.1-0.9 2-2 2h-9.14c-1.1 0-2-0.9-2-2v-15.33c0-1.1 0.9-2 2-2h9.14m0-2h-9.14c-2.21 0-4 1.79-4 4v15.33c0 2.21 1.79 4 4 4h9.14c2.21 0 4-1.79 4-4v-15.33c0-2.21-1.79-4-4-4z" fill="#424242"/>
  </g>
  <defs>
    <path id="c" d="m115.94 99h-103.71c-3.3 0-6-2.7-6-6v-59c0-3.31 2.69-6 6-6h103.71c3.31 0 6 2.69 6 6v59c0 3.3-2.7 6-6 6z"/>
  </defs>
  <clipPath id="a">
    <use xlink:href="#c"/>
  </clipPath>
  <rect clip-path="url(#a)" fill="#689F38" height="17.25" width="120.51" x="3.83" y="18.75"/>
  <g clip-path="url(#a)">
    <path d="M21,74H5.6c-2.21,0-4-1.79-4-4V49.75c0-2.21,1.79-4,4-4H21c2.21,0,4,1.79,4,4V70 C25,72.21,23.21,74,21,74z" fill="#4FC3F7"/>
  </g>
  <g clip-path="url(#a)" opacity=".2">
    <path d="m21 48.44c0.72 0 1.31 0.59 1.31 1.31v20.25c0 0.72-0.59 1.31-1.31 1.31h-15.4c-0.72 0-1.31-0.59-1.31-1.31v-20.25c0-0.72 0.59-1.31 1.31-1.31h15.4m0-2.69h-15.4c-2.21 0-4 1.79-4 4v20.25c0 2.21 1.79 4 4 4h15.4c2.21 0 4-1.79 4-4v-20.25c0-2.21-1.79-4-4-4z" fill="#616161"/>
  </g>
  <g opacity=".2">
    <path d="m115.94 31c1.65 0 3 1.35 3 3v59c0 1.65-1.35 3-3 3h-103.71c-1.65 0-3-1.35-3-3v-59c0-1.65 1.35-3 3-3h103.71m0-3h-103.71c-3.31 0-6 2.69-6 6v59c0 3.3 2.7 6 6 6h103.71c3.3 0 6-2.7 6-6v-59c0-3.31-2.69-6-6-6z" fill="#424242"/>
  </g>
</svg>

<svg viewBox="0 0 128 128" xmlns="http://www.w3.org/2000/svg" xmlns:xlink="http://www.w3.org/1999/xlink">
  <g>
    <rect fill="#8D6E63" height="22" width="119.8" x="4" y="101"/>
    <rect fill="#424242" height="7" width="119.9" x="4" y="101"/>
    <g opacity="0.2">
      <path d="M122,103v18H6v-18H122 M124,101H4v22h120V101z" fill="#EEEEEE"/>
    </g>
    <g>
      <circle cx="18" cy="99" fill="#212121" r="6"/>
      <circle cx="34" cy="99" fill="#212121" r="6"/>
      <circle cx="94" cy="99" fill="#212121" r="6"/>
      <circle cx="110" cy="99" fill="#212121" r="6"/>
    </g>
    <linearGradient id="SVGID_1_" gradientTransform="matrix(1 0 0 1 0 -4123.9702)" gradientUnits="userSpaceOnUse" x1="64.05" x2="64.05" y1="4151.9702" y2="4222.9702">
      <stop offset="0" style="stop-color:#FF7043"/>
      <stop offset="0.6132" style="stop-color:#F15A2B"/>
      <stop offset="1" style="stop-color:#E64A19"/>
    </linearGradient>
    <path d="M115.9,99H12.2c-3.3,0-6-2.7-6-6V34c0-3.3,2.7-6,6-6h103.7c3.3,0,6,2.7,6,6v59 C121.9,96.3,119.2,99,115.9,99z" fill="url(#SVGID_1_)"/>
    <linearGradient id="SVGID_2_" gradientTransform="matrix(1 0 0 -1 0 127.9698)" gradientUnits="userSpaceOnUse" x1="6.1" x2="121.9" y1="45.12" y2="45.12">
      <stop offset="3.832300e-03" style="stop-color:#FFEB3B"/>
      <stop offset="0.8197" style="stop-color:#FCC830"/>
      <stop offset="1" style="stop-color:#FBC02D"/>
    </linearGradient>
    <rect fill="url(#SVGID_2_)" height="6.3" width="115.8" x="6.1" y="79.7"/>
    <g>
      <defs>
        <path id="SVGID_3_" d="M115.9,99H12.2c-3.3,0-6-2.7-6-6V34c0-3.3,2.7-6,6-6h103.7c3.3,0,6,2.7,6,6v59 C121.9,96.3,119.2,99,115.9,99z"/>
      </defs>
      <clipPath id="SVGID_4_">
        <use overflow="visible" xlink:href="#SVGID_3_"/>
      </clipPath>
      <rect clip-path="url(#SVGID_4_)" fill="#689F38" height="17.2" width="120.5" x="3.8" y="18.8"/>
    </g>
    <g>
      <defs>
        <path id="SVGID_5_" d="M115.9,99H12.2c-3.3,0-6-2.7-6-6V34c0-3.3,2.7-6,6-6h103.7c3.3,0,6,2.7,6,6v59 C121.9,96.3,119.2,99,115.9,99z"/>
      </defs>
      <clipPath id="SVGID_6_">
        <use overflow="visible" xlink:href="#SVGID_5_"/>
      </clipPath>
      <g clip-path="url(#SVGID_6_)">
        <path d="M21,74H5.6c-2.2,0-4-1.8-4-4V49.8c0-2.2,1.8-4,4-4H21c2.2,0,4,1.8,4,4V70C25,72.2,23.2,74,21,74z" fill="#4FC3F7"/>
      </g>
    </g>
    <g>
      <defs>
        <path id="SVGID_7_" d="M115.9,99H12.2c-3.3,0-6-2.7-6-6V34c0-3.3,2.7-6,6-6h103.7c3.3,0,6,2.7,6,6v59 C121.9,96.3,119.2,99,115.9,99z"/>
      </defs>
      <clipPath id="SVGID_8_">
        <use overflow="visible" xlink:href="#SVGID_7_"/>
      </clipPath>
      <g clip-path="url(#SVGID_8_)" opacity="0.2">
        <path d="M21,47.8c1.1,0,2,0.9,2,2V70c0,1.1-0.9,2-2,2H5.6c-1.1,0-2-0.9-2-2V49.8c0-1.1,0.9-2,2-2H21 M21,45.8 H5.6c-2.2,0-4,1.8-4,4V70c0,2.2,1.8,4,4,4H21c2.2,0,4-1.8,4-4V49.8C25,47.5,23.2,45.8,21,45.8z" fill="#424242"/>
      </g>
    </g>
    <path d="M44.2,69.1H35c-2.2,0-4-1.8-4-4V49.8c0-2.2,1.8-4,4-4h9.1c2.2,0,4,1.8,4,4v15.3 C48.2,67.3,46.5,69.1,44.2,69.1z" fill="#4FC3F7"/>
    <g opacity="0.2">
      <path d="M44.2,47.8c1.1,0,2,0.9,2,2v15.3c0,1.1-0.9,2-2,2H35c-1.1,0-2-0.9-2-2V49.8c0-1.1,0.9-2,2-2H44.2 M44.2,45.8H35c-2.2,0-4,1.8-4,4v15.3c0,2.2,1.8,4,4,4h9.1c2.2,0,4-1.8,4-4V49.8C48.2,47.5,46.5,45.8,44.2,45.8z" fill="#424242"/>
    </g>
    <path d="M66.4,68.9h-9.1c-2.2,0-4-1.8-4-4V49.5c0-2.2,1.8-4,4-4h9.1c2.2,0,4,1.8,4,4v15.3 C70.4,67.1,68.6,68.9,66.4,68.9z" fill="#4FC3F7"/>
    <g opacity="0.2">
      <path d="M66.4,47.5c1.1,0,2,0.9,2,2v15.3c0,1.1-0.9,2-2,2h-9.1c-1.1,0-2-0.9-2-2V49.5c0-1.1,0.9-2,2-2H66.4 M66.4,45.5h-9.1c-2.2,0-4,1.8-4,4v15.3c0,2.2,1.8,4,4,4h9.1c2.2,0,4-1.8,4-4V49.5C70.4,47.3,68.6,45.5,66.4,45.5z" fill="#424242"/>
    </g>
    <path d="M88.5,69.1h-9.1c-2.2,0-4-1.8-4-4V49.8c0-2.2,1.8-4,4-4h9.1c2.2,0,4,1.8,4,4v15.3 C92.5,67.3,90.7,69.1,88.5,69.1z" fill="#4FC3F7"/>
    <g opacity="0.2">
      <path d="M88.5,47.8c1.1,0,2,0.9,2,2v15.3c0,1.1-0.9,2-2,2h-9.1c-1.1,0-2-0.9-2-2V49.8c0-1.1,0.9-2,2-2H88.5 M88.5,45.8h-9.1c-2.2,0-4,1.8-4,4v15.3c0,2.2,1.8,4,4,4h9.1c2.2,0,4-1.8,4-4V49.8C92.5,47.5,90.7,45.8,88.5,45.8z" fill="#424242"/>
    </g>
    <path d="M110.6,69h-9.1c-2.2,0-4-1.8-4-4V49.7c0-2.2,1.8-4,4-4h9.1c2.2,0,4,1.8,4,4V65 C114.6,67.2,112.8,69,110.6,69z" fill="#4FC3F7"/>
    <g opacity="0.2">
      <path d="M110.6,47.7c1.1,0,2,0.9,2,2V65c0,1.1-0.9,2-2,2h-9.1c-1.1,0-2-0.9-2-2V49.7c0-1.1,0.9-2,2-2H110.6 M110.6,45.7h-9.1c-2.2,0-4,1.8-4,4V65c0,2.2,1.8,4,4,4h9.1c2.2,0,4-1.8,4-4V49.7C114.6,47.5,112.8,45.7,110.6,45.7z" fill="#424242"/>
    </g>
    <g>
      <defs>
        <path id="SVGID_9_" d="M115.9,99H12.2c-3.3,0-6-2.7-6-6V34c0-3.3,2.7-6,6-6h103.7c3.3,0,6,2.7,6,6v59 C121.9,96.3,119.2,99,115.9,99z"/>
      </defs>
      <clipPath id="SVGID_10_">
        <use overflow="visible" xlink:href="#SVGID_9_"/>
      </clipPath>
      <linearGradient id="SVGID_11_" gradientTransform="matrix(1 0 0 -1 0 127.9698)" gradientUnits="userSpaceOnUse" x1="64.05" x2="64.05" y1="91.97" y2="99.97">
        <stop offset="3.832300e-03" style="stop-color:#FFEB3B"/>
        <stop offset="0.8197" style="stop-color:#FCC830"/>
        <stop offset="1" style="stop-color:#FBC02D"/>
      </linearGradient>
      <rect clip-path="url(#SVGID_10_)" fill="url(#SVGID_11_)" height="8" width="120.5" x="3.8" y="28"/>
    </g>
    <g>
      <defs>
        <path id="SVGID_12_" d="M115.9,99H12.2c-3.3,0-6-2.7-6-6V34c0-3.3,2.7-6,6-6h103.7c3.3,0,6,2.7,6,6v59 C121.9,96.3,119.2,99,115.9,99z"/>
      </defs>
      <clipPath id="SVGID_13_">
        <use overflow="visible" xlink:href="#SVGID_12_"/>
      </clipPath>
      <g clip-path="url(#SVGID_13_)">
        <path d="M21,74H5.6c-2.2,0-4-1.8-4-4V49.8c0-2.2,1.8-4,4-4H21c2.2,0,4,1.8,4,4V70C25,72.2,23.2,74,21,74z" fill="#4FC3F7"/>
      </g>
    </g>
    <g>
      <defs>
        <path id="SVGID_14_" d="M115.9,99H12.2c-3.3,0-6-2.7-6-6V34c0-3.3,2.7-6,6-6h103.7c3.3,0,6,2.7,6,6v59 C121.9,96.3,119.2,99,115.9,99z"/>
      </defs>
      <clipPath id="SVGID_15_">
        <use overflow="visible" xlink:href="#SVGID_14_"/>
      </clipPath>
      <g clip-path="url(#SVGID_15_)" opacity="0.2">
        <path d="M21,48.4c0.7,0,1.3,0.6,1.3,1.3V70c0,0.7-0.6,1.3-1.3,1.3H5.6c-0.7,0-1.3-0.6-1.3-1.3V49.8 c0-0.7,0.6-1.3,1.3-1.3H21 M21,45.8H5.6c-2.2,0-4,1.8-4,4V70c0,2.2,1.8,4,4,4H21c2.2,0,4-1.8,4-4V49.8 C25,47.5,23.2,45.8,21,45.8z" fill="#616161"/>
      </g>
    </g>
    <g opacity="0.2">
      <path d="M115.9,31c1.7,0,3,1.3,3,3v59c0,1.7-1.3,3-3,3H12.2c-1.6,0-3-1.3-3-3V34c0-1.7,1.4-3,3-3H115.9 M115.9,28 H12.2c-3.3,0-6,2.7-6,6v59c0,3.3,2.7,6,6,6h103.7c3.3,0,6-2.7,6-6V34C121.9,30.7,119.2,28,115.9,28z" fill="#424242"/>
    </g>
  </g>
</svg>
